!!!COM: des Prez, Josquin
!!!CDT: ~1450-1521/08/27
!!!OTL@@LAT: Illibata dei virgo nutrix / La mi la
!!!OTL2@@LAT: Ave virginum decus
!!!AGN: Motet
!!!SCT: NJE 24.3
!!!SCA: New Josquin Edition 24.3
!!!ONB: Ed. Jesse Rodin from Cappella Sistina 15
!!!ONB: Illibata dei virgo nutrix/La mi la
!!!voices: 5
**kern	**text	**kern	**text	**kern	**text	**kern	**text	**kern	**text
*staff5	*	*staff4	*	*staff3	*	*staff2	*	*staff1	*
*Ivox	*	*Ivox	*	*Ivox	*	*Ivox	*	*Ivox	*
*I"Bassus	*	*I"Altus2	*	*I"Tenor	*	*I"Altus1	*	*I"Superius	*
*I'B	*	*I'A2	*	*I'T	*	*I'A1	*	*I'S	*
*>[A,B]	*	*>[A,B]	*	*>[A,B]	*	*>[A,B]	*	*>[A,B]	*
*>Part1[A]	*	*>Part1[A]	*	*>Part1[A]	*	*>Part1[A]	*	*>Part1[A]	*
*>Part2[B]	*	*>Part2[B]	*	*>Part2[B]	*	*>Part[B]	*	*>Part[B]	*
*clefF4	*	*clefGv2	*	*clefGv2	*	*clefGv2	*	*clefG2	*
*k[b-]	*	*k[b-]	*	*k[b-]	*	*k[b-]	*	*k[b-]	*
*>A	*	*>A	*	*>A	*	*>A	*	*>A	*
*M3/1	*	*M3/1	*	*M3/1	*	*M3/1	*	*M3/1	*
*met(O)	*	*met(O)	*	*met(O)	*	*met(O)	*	*met(O)	*
=1-	=1-	=1-	=1-	=1-	=1-	=1-	=1-	=1-	=1-
0.r	.	0.r	.	0.r	.	0.r	.	1g	Il-
.	.	.	.	.	.	.	.	2b-\	-li-
.	.	.	.	.	.	.	.	2cc\	-ba-
.	.	.	.	.	.	.	.	1dd	-ta
=2	=2	=2	=2	=2	=2	=2	=2	=2	=2
0.r	.	1G	Il-	0.r	.	0.r	.	2ee-i\	de-
.	.	.	.	.	.	.	.	1dd	.
.	.	2B-\	-li-	.	.	.	.	.	.
.	.	2c\	-ba-	.	.	.	.	4cc\	.
.	.	.	.	.	.	.	.	4b-\	.
.	.	1d	-ta	.	.	.	.	1a	-i
=3	=3	=3	=3	=3	=3	=3	=3	=3	=3
0.r	.	2e-i\	de-	0.r	.	0.r	.	2g/	vir-
.	.	1d	.	.	.	.	.	1b-	.
.	.	4c\	.	.	.	.	.	4a/	.
.	.	4B-\	.	.	.	.	.	4g/	.
.	.	1A	-i	.	.	.	.	2f/	-go
.	.	.	.	.	.	.	.	[2cc\	nu-
=4	=4	=4	=4	=4	=4	=4	=4	=4	=4
0.r	.	2G/	vir-	0.r	.	0.r	.	4cc\]	.
.	.	.	.	.	.	.	.	4b-\	.
.	.	1B-	.	.	.	.	.	1dd	.
.	.	4A/	.	.	.	.	.	4cc\	.
.	.	4G/	.	.	.	.	.	4b-\	.
.	.	2F/	-go	.	.	.	.	1a	.
.	.	[2c\	nu-	.	.	.	.	.	.
=5	=5	=5	=5	=5	=5	=5	=5	=5	=5
0.r	.	4c\]	.	0.r	.	0.r	.	2g/	.
.	.	4B-\	.	.	.	.	.	.	.
.	.	1d	.	.	.	.	.	1b-	.
.	.	4c\	.	.	.	.	.	4a/	.
.	.	4B-\	.	.	.	.	.	4g/	.
.	.	1A	.	.	.	.	.	2.f#i/	.
.	.	.	.	.	.	.	.	4e/	.
=6	=6	=6	=6	=6	=6	=6	=6	=6	=6
0.r	.	0.G	-trix,	0.r	.	0.r	.	0.g	-trix,
=7	=7	=7	=7	=7	=7	=7	=7	=7	=7
0.r	.	0.r	.	0.r	.	1G	Il-	0.r	.
.	.	.	.	.	.	2B-\	-li-	.	.
.	.	.	.	.	.	2c\	-ba-	.	.
.	.	.	.	.	.	1d	-ta	.	.
=8	=8	=8	=8	=8	=8	=8	=8	=8	=8
1GG	Il	0.r	.	0.r	.	2e-i\	de-	0.r	.
.	.	.	.	.	.	1d	.	.	.
2BB-/	-li-	.	.	.	.	.	.	.	.
2C/	-ba-	.	.	.	.	4c\	.	.	.
.	.	.	.	.	.	4B-\	.	.	.
1D	-ta	.	.	.	.	1A	-i	.	.
=9	=9	=9	=9	=9	=9	=9	=9	=9	=9
2E-i\	de-	0.r	.	0.r	.	2G/	vir-	0.r	.
1D	.	.	.	.	.	1B-	.	.	.
4C/	.	.	.	.	.	4A/	.	.	.
4BB-/	.	.	.	.	.	4G/	.	.	.
1AA	-i	.	.	.	.	2F/	-go	.	.
.	.	.	.	.	.	[2c\	nu-	.	.
=10	=10	=10	=10	=10	=10	=10	=10	=10	=10
2GG/	vir-	0.r	.	0.r	.	4c\]	.	0.r	.
.	.	.	.	.	.	4B-\	.	.	.
1BB-	.	.	.	.	.	1d	.	.	.
4AA/	.	.	.	.	.	4c\	.	.	.
4GG/	.	.	.	.	.	4B-\	.	.	.
2FF/	-go	.	.	.	.	1A	.	.	.
[2C/	nu-	.	.	.	.	.	.	.	.
=11	=11	=11	=11	=11	=11	=11	=11	=11	=11
4C/]	.	0.r	.	0.r	.	2G/	.	0.r	.
4BB-/	.	.	.	.	.	.	.	.	.
1D	.	.	.	.	.	1B-	.	.	.
4C/	.	.	.	.	.	4A/	.	.	.
4BB-/	.	.	.	.	.	4G/	.	.	.
1AA	.	.	.	.	.	2.F#i/	.	.	.
.	.	.	.	.	.	4E/	.	.	.
=12	=12	=12	=12	=12	=12	=12	=12	=12	=12
0GG	-trix,	1r	.	0.r	.	0.G	-trix,	0.r	.
.	.	1r	.	.	.	.	.	.	.
1GG	O-	1B-	O-	.	.	.	.	.	.
=13	=13	=13	=13	=13	=13	=13	=13	=13	=13
1.D	-lim-	2B-\	-lim-	0.r	.	0.r	.	0.r	.
.	.	1A	.	.	.	.	.	.	.
2E\	.	2G/	.	.	.	.	.	.	.
1F	-pi	1A	-pi	.	.	.	.	.	.
=14	=14	=14	=14	=14	=14	=14	=14	=14	=14
2G\	tu	2.G/	tu	0.r	.	0.r	.	0.r	.
1B-	re-	.	.	.	.	.	.	.	.
.	.	4F/	.	.	.	.	.	.	.
.	.	2D/	re-	.	.	.	.	.	.
2G\	.	2E/	.	.	.	.	.	.	.
1A	.	1F	-gis,	.	.	.	.	.	.
=15	=15	=15	=15	=15	=15	=15	=15	=15	=15
0G	.	2G/	tu	0.r	.	0.r	.	0.r	.
.	.	2.B-\	re-	.	.	.	.	.	.
.	.	4c\	.	.	.	.	.	.	.
.	.	1d	.	.	.	.	.	.	.
1G	gis,	.	.	.	.	.	.	.	.
.	.	4c\	.	.	.	.	.	.	.
.	.	4B-\	.	.	.	.	.	.	.
=16	=16	=16	=16	=16	=16	=16	=16	=16	=16
1F	tu	2A/	.	0.r	.	0.r	.	0.r	.
.	.	2d\	.	.	.	.	.	.	.
2F\	re-	2c\	.	.	.	.	.	.	.
1G	-gis	1B-	-gis	.	.	.	.	.	.
2G\	o	4A/	o	.	.	.	.	.	.
.	.	4G/	.	.	.	.	.	.	.
=17	=17	=17	=17	=17	=17	=17	=17	=17	=17
2A\	ge-	2F/	ge-	0.r	.	0.r	.	0.r	.
2.c\	.	2.A/	.	.	.	.	.	.	.
4B-\	.	4G/	.	.	.	.	.	.	.
4A\	.	4F#i/	.	.	.	.	.	.	.
4G\	.	4E/	.	.	.	.	.	.	.
1A	-ni-	1F#i	-ni-	.	.	.	.	.	.
=18	=18	=18	=18	=18	=18	=18	=18	=18	=18
0G	-trix,	0G	-trix,	0.r	.	1.B-	So-	0.r	.
.	.	.	.	.	.	2G/	-la	.	.
1r	.	1r	.	.	.	1A	pa-	.	.
=19	=19	=19	=19	=19	=19	=19	=19	=19	=19
0G	So-	0.r	.	[0.d	La	0G	-rens	1b-	So-
.	.	.	.	.	.	.	.	2b-\	-la
.	.	.	.	.	.	.	.	2g/	pa-
1D	-la	.	.	.	.	1F	.	1a	rens
=20	=20	=20	=20	=20	=20	=20	=20	=20	=20
2r	.	1.B-	So-	0.d_	.	0G	ver-	0g	ver-
1.GG	pa-	.	.	.	.	.	.	.	.
.	.	2G/	-la	.	.	.	.	.	.
1D	.	1A	pa-	.	.	1D	-bi	1f	-bi
=21	=21	=21	=21	=21	=21	=21	=21	=21	=21
1GG	-rens	1G	-rens	0.d]	.	0.B-	pu-	2g/	pu-
.	.	.	.	.	.	.	.	2.dd\	.
0G	ver-	1G	ver-	.	.	.	.	.	.
.	.	.	.	.	.	.	.	4cc\	.
.	.	.	.	.	.	.	.	1b-	.
.	.	2.d\	-bi	.	.	.	.	.	.
.	.	.	.	.	.	.	.	4a/	.
.	.	4e\	.	.	.	.	.	4g/	.
=22	=22	=22	=22	=22	=22	=22	=22	=22	=22
1.F	-bi	2.f\	pu-	[0.A	mi	1c	-er-	1.a	-er-
.	.	4e\	.	.	.	.	.	.	.
.	.	2c\	.	.	.	1A	.	.	.
1.D	pu-	2d\	.	.	.	.	.	2f/	-pe-
.	.	2A/	-er-	.	.	2D/	pe-	1f	-ra,
.	.	2d\	-pe-	.	.	2F/	.	.	.
=23	=23	=23	=23	=23	=23	=23	=23	=23	=23
2.AA/	-er-	2e\	.	0.A_	.	2E/	.	2r	.
.	.	2.c\	.	.	.	2.A/	-ra,	1e	Que
4BB-/	.	.	.	.	.	.	.	.	.
2C/	-pe-	.	.	.	.	.	.	.	.
.	.	4B-\	.	.	.	4G/	.	.	.
2.D\	-ra,	4A/	.	.	.	4F/	.	1f	.
.	.	4G/	.	.	.	4E/	.	.	.
.	.	2F/	-ra,	.	.	1D	.	.	.
4C/	.	.	.	.	.	.	.	.	.
2D\	Que	2f\	Que	.	.	.	.	4e/	.
.	.	.	.	.	.	.	.	4d/	.
=24	=24	=24	=24	=24	=24	=24	=24	=24	=24
2AA/	fu-	2e\	.	0.A]	.	0.r	.	2c/	fu-
1D	-is-	2d\	fu-	.	.	.	.	1f	-i-
.	.	2f\	-is-	.	.	.	.	.	.
2E\	.	4e\	.	.	.	.	.	2g/	.
.	.	4d\	.	.	.	.	.	.	.
1F	-ti	1c	-ti	.	.	.	.	1a	-sti
=25	=25	=25	=25	=25	=25	=25	=25	=25	=25
0BB-	E-	1r	.	[0.d	la	0B-	E-	2.b-\	E-
.	.	.	.	.	.	.	.	4a/	.
.	.	2.B-\	E-	.	.	.	.	2g/	-ve,
.	.	.	.	.	.	.	.	2f/	.
.	.	4A/	.	.	.	.	.	.	.
1BB-	-ve,	2G/	-ve,	.	.	2.B-\	-ve,	2.dd\	E-
.	.	2F/	.	.	.	.	.	.	.
.	.	.	.	.	.	4A/	.	4cc\	.
=26	=26	=26	=26	=26	=26	=26	=26	=26	=26
2r	.	2.d\	E-	0.d_	.	2G/	.	2b-\	-ve,
1D	fu-	.	.	.	.	2F/	.	2a/	.
.	.	4c\	.	.	.	.	.	.	.
.	.	2B-\	-ve	.	.	2.d\	E-	1r	.
2D\	-is-	2A/	.	.	.	.	.	.	.
.	.	.	.	.	.	4c\	.	.	.
1D	-ti,	2.f\	re-	.	.	2B-\	-ve,	2.dd\	re-
.	.	.	.	.	.	2A/	.	.	.
.	.	4e\	.	.	.	.	.	4cc\	.
=27	=27	=27	=27	=27	=27	=27	=27	=27	=27
2r	.	2.d\	-pa-	0.d]	.	2.f\	re-	2b-\	.
1D	re-	.	.	.	.	.	.	1a	-pa-
.	.	4c\	.	.	.	4e\	.	.	.
.	.	2B-\	-ra-	.	.	2d\	-pa-	.	.
2GG/	-pa-	4A/	.	.	.	2.d\	-ra-	1g	-ra-
.	.	4G/	.	.	.	.	.	.	.
1D	-ra-	1A	.	.	.	.	.	.	.
.	.	.	.	.	.	4c\	.	.	.
.	.	.	.	.	.	2A/	.	2f#i/	.
=28	=28	=28	=28	=28	=28	=28	=28	=28	=28
0GG	-trix,	0G	-trix,	0.r	.	1B-	-trix,	1g	-trix,
.	.	.	.	.	.	1r	.	2r	.
.	.	.	.	.	.	.	.	2g/	Vi-
1r	.	1r	.	.	.	1r	.	2a/	.
.	.	.	.	.	.	.	.	2f/	-ri
=29	=29	=29	=29	=29	=29	=29	=29	=29	=29
0.r	.	2r	.	0.r	.	0.r	.	1e	ne-
.	.	2c\	Vi-	.	.	.	.	.	.
.	.	2d\	.	.	.	.	.	1d	-phas
.	.	2B-\	-ri	.	.	.	.	.	.
.	.	1A	ne-	.	.	.	.	2r	.
.	.	.	.	.	.	.	.	2f/	tu-
=30	=30	=30	=30	=30	=30	=30	=30	=30	=30
0.r	.	1G	-phas	0.r	.	0.r	.	2g/	-ta
.	.	.	.	.	.	.	.	2g/	me-
.	.	2r	.	.	.	.	.	2a/	-di-
.	.	2B-\	tu-	.	.	.	.	2g/	-a-
.	.	2c\	-ta	.	.	.	.	1e	-trix,
.	.	2c\	me-	.	.	.	.	.	.
=31	=31	=31	=31	=31	=31	=31	=31	=31	=31
0.r	.	2d\	-di-	0.r	.	0.r	.	2r	.
.	.	2c\	-a-	.	.	.	.	1a	tu-
.	.	2A/	-trix,	.	.	.	.	.	.
.	.	1d	tu-	.	.	.	.	2a/	-ta
.	.	.	.	.	.	.	.	2b-\	.
.	.	2e\	-ta	.	.	.	.	2cc\	me-
=32	=32	=32	=32	=32	=32	=32	=32	=32	=32
0.r	.	2f\	me-	0.r	.	0.r	.	2.dd\	-di-
.	.	2.g\	-di-	.	.	.	.	.	.
.	.	.	.	.	.	.	.	4cc\	.
.	.	.	.	.	.	.	.	4b-\	.
.	.	4f\	.	.	.	.	.	4a/	.
.	.	4e\	.	.	.	.	.	2.cc\	.
.	.	4d\	.	.	.	.	.	.	.
.	.	2.f\	.	.	.	.	.	.	.
.	.	.	.	.	.	.	.	4b-\	.
.	.	.	.	.	.	.	.	4a/	.
.	.	4e-\	.	.	.	.	.	4g/	.
=33	=33	=33	=33	=33	=33	=33	=33	=33	=33
0.r	.	4d\	.	0.r	.	0.r	.	2.b-\	.
.	.	4c\	.	.	.	.	.	.	.
.	.	2.e-\	.	.	.	.	.	.	.
.	.	.	.	.	.	.	.	4a/	.
.	.	.	.	.	.	.	.	4g/	.
.	.	4d\	.	.	.	.	.	4f/	.
.	.	4c\	.	.	.	.	.	2.a/	.
.	.	4B-\	.	.	.	.	.	.	.
.	.	2.d\	.	.	.	.	.	.	.
.	.	.	.	.	.	.	.	4g/	.
.	.	.	.	.	.	.	.	4f/	.
.	.	4c\	.	.	.	.	.	4e/	.
=34	=34	=34	=34	=34	=34	=34	=34	=34	=34
0.r	.	4B-\	.	0.r	.	0.r	.	2d/	.
.	.	4A/	.	.	.	.	.	.	.
.	.	2G/	.	.	.	.	.	2.dd\	.
.	.	2.g\	.	.	.	.	.	.	.
.	.	.	.	.	.	.	.	4cc\	.
.	.	.	.	.	.	.	.	4b-\	.
.	.	4f\	.	.	.	.	.	4a/	.
.	.	2d\	.	.	.	.	.	2b-\	.
.	.	2c\	.	.	.	.	.	[2cc\	.
=35	=35	=35	=35	=35	=35	=35	=35	=35	=35
0.r	.	2.f\	.	0.r	.	0.r	.	4cc\]	.
.	.	.	.	.	.	.	.	4b-\	.
.	.	.	.	.	.	.	.	4a/	.
.	.	4e\	.	.	.	.	.	4g/	.
.	.	2c\	.	.	.	.	.	2a/	.
.	.	2B-\	.	.	.	.	.	2.b-\	.
.	.	2.e-\	.	.	.	.	.	.	.
.	.	.	.	.	.	.	.	4a/	.
.	.	.	.	.	.	.	.	4g/	.
.	.	4d\	.	.	.	.	.	4f/	.
=36	=36	=36	=36	=36	=36	=36	=36	=36	=36
0.r	.	4c\	.	0.r	.	0.r	.	2g/	.
.	.	4B-\	.	.	.	.	.	.	.
.	.	2c\	.	.	.	.	.	2.a/	.
.	.	2d\	.	.	.	.	.	.	.
.	.	.	.	.	.	.	.	4g/	.
.	.	2G/	.	.	.	.	.	1g	-a-
.	.	1A	-a-	.	.	.	.	.	.
.	.	.	.	.	.	.	.	2f#i/	.
=37	=37	=37	=37	=37	=37	=37	=37	=37	=37
0GG	Il-	0.G	-trix.	0.r	.	1r	.	0.g	-trix.
.	.	.	.	.	.	1r	.	.	.
2.GG/	-lud	.	.	.	.	1G	Il-	.	.
4AA/	.	.	.	.	.	.	.	.	.
=38	=38	=38	=38	=38	=38	=38	=38	=38	=38
2BB-/	.	0.r	.	0.r	.	1G	-lud	0.r	.
2.C/	cla-	.	.	.	.	.	.	.	.
.	.	.	.	.	.	0c	cla-	.	.
4BB-/	.	.	.	.	.	.	.	.	.
4AA/	.	.	.	.	.	.	.	.	.
4GG/	.	.	.	.	.	.	.	.	.
1AA	.	.	.	.	.	.	.	.	.
=39	=39	=39	=39	=39	=39	=39	=39	=39	=39
1GG	-ra	0.r	.	0.r	.	1B-	-ra	0.r	.
2r	.	.	.	.	.	2A/	lu-	.	.
2G\	lu-	.	.	.	.	2.B-\	.	.	.
2.B-\	.	.	.	.	.	.	.	.	.
.	.	.	.	.	.	4A/	.	.	.
.	.	.	.	.	.	4G/	.	.	.
4A\	.	.	.	.	.	4F/	.	.	.
=40	=40	=40	=40	=40	=40	=40	=40	=40	=40
2.G\	.	0.r	.	0.r	.	2.B-\	.	0.r	.
4F\	.	.	.	.	.	4c\	.	.	.
4D\	.	.	.	.	.	2.d\	.	.	.
4E\	.	.	.	.	.	.	.	.	.
2.F\	.	.	.	.	.	.	.	.	.
.	.	.	.	.	.	4e\	.	.	.
.	.	.	.	.	.	2.f\	.	.	.
4E\	.	.	.	.	.	.	.	.	.
4D\	.	.	.	.	.	.	.	.	.
4C/	.	.	.	.	.	4e\	.	.	.
=41	=41	=41	=41	=41	=41	=41	=41	=41	=41
2BB-/	-ce	0.r	.	0.r	.	2d\	-ce	0.r	.
2F\	dat	.	.	.	.	2c\	dat	.	.
2G\	scrip-	.	.	.	.	2B-\	scrip-	.	.
1B-	-tu-	.	.	.	.	2d\	-tu-	.	.
.	.	.	.	.	.	1c	-ra.	.	.
2A\	.	.	.	.	.	.	.	.	.
=42	=42	=42	=42	=42	=42	=42	=42	=42	=42
1B-	-ra.	2r	.	0.r	.	0.r	.	1d	Il-
.	.	1B-	Il-	.	.	.	.	.	.
1r	.	.	.	.	.	.	.	1f	-lud
.	.	2A/	-lud	.	.	.	.	.	.
1r	.	2B-\	cla-	.	.	.	.	1g	cla-
.	.	2c\	.	.	.	.	.	.	.
=43	=43	=43	=43	=43	=43	=43	=43	=43	=43
0.r	.	2F/	-ra	0.r	.	0.r	.	2.a/	-ra
.	.	1f	lu-	.	.	.	.	.	.
.	.	.	.	.	.	.	.	4b-\	.
.	.	.	.	.	.	.	.	2cc\	.
.	.	2d\	-ce-	.	.	.	.	1dd	lu-
.	.	1e-i	-dat	.	.	.	.	.	.
.	.	.	.	.	.	.	.	2cc\	-ce-
=44	=44	=44	=44	=44	=44	=44	=44	=44	=44
0.r	.	2r	.	0.r	.	0.r	.	2b-\	-dat
.	.	2.d\	scrip-	.	.	.	.	2a/	.
.	.	.	.	.	.	.	.	2.dd\	scrip-
.	.	4c\	.	.	.	.	.	.	.
.	.	2.B-\	.	.	.	.	.	.	.
.	.	.	.	.	.	.	.	4cc\	.
.	.	.	.	.	.	.	.	2.b-\	.
.	.	4A/	.	.	.	.	.	.	.
.	.	4G/	.	.	.	.	.	.	.
.	.	4F/	.	.	.	.	.	4a/	.
=45	=45	=45	=45	=45	=45	=45	=45	=45	=45
0.r	.	2B-\	.	0.r	.	0.r	.	4g/	.
.	.	.	.	.	.	.	.	4f/	.
.	.	2.c\	.	.	.	.	.	2.a/	.
.	.	4B-\	.	.	.	.	.	4g/	.
.	.	4A/	.	.	.	.	.	1g	.
.	.	4G/	.	.	.	.	.	.	.
.	.	1A	-tu-	.	.	.	.	.	.
.	.	.	.	.	.	.	.	2f#i/	-tu-
=46	=46	=46	=46	=46	=46	=46	=46	=46	=46
0GG	Na-	0.G	-ra.	[0.G	La	1G	Na-	0.g	-ra.
.	.	.	.	.	.	1d	.	.	.
1C	-ta	.	.	.	.	1e-i	-ta	.	.
=47	=47	=47	=47	=47	=47	=47	=47	=47	=47
2BB-/	na-	1.B-	Na-	0.G_	.	2d\	na-	1r	.
2.E-i\	.	.	.	.	.	2.g\	.	.	.
.	.	.	.	.	.	.	.	1r	.
4D\	.	.	.	.	.	4f\	.	.	.
1C	.	1.c	-ta	.	.	1e-i	.	.	.
.	.	.	.	.	.	.	.	1g	Na-
4BB-/	.	.	.	.	.	4d\	.	.	.
4AA/	.	.	.	.	.	4c\	.	.	.
=48	=48	=48	=48	=48	=48	=48	=48	=48	=48
0.GG	-ti	[0.d	.	0.G]	.	1B-	-ti,	1.b-	.
.	.	.	.	.	.	1B-	na-	.	.
.	.	.	.	.	.	.	.	2a/	.
.	.	.	.	.	.	1B-	-ta	1g	-ta
=49	=49	=49	=49	=49	=49	=49	=49	=49	=49
0.r	.	1d]	.	[0.D	mi	1A	na-	[0.f	na-
.	.	1r	.	.	.	2.F/	.	.	.
.	.	.	.	.	.	4G/	.	.	.
.	.	2.F/	na-	.	.	2A/	.	.	.
.	.	.	.	.	.	2B-\	.	.	.
.	.	4G/	.	.	.	.	.	.	.
=50	=50	=50	=50	=50	=50	=50	=50	=50	=50
0.r	.	2A/	.	0.D_	.	2A/	.	0.f_	.
.	.	2B-\	.	.	.	2.d\	.	.	.
.	.	2A/	.	.	.	.	.	.	.
.	.	.	.	.	.	4e\	.	.	.
.	.	2.d\	.	.	.	2f\	.	.	.
.	.	.	.	.	.	2F/	.	.	.
.	.	4e\	.	.	.	.	.	.	.
.	.	2f\	.	.	.	2B-\	.	.	.
=51	=51	=51	=51	=51	=51	=51	=51	=51	=51
0.r	.	2F/	.	0.D]	.	2A/	.	0.f]	.
.	.	2B-\	.	.	.	2.d\	.	.	.
.	.	2A/	.	.	.	.	.	.	.
.	.	.	.	.	.	4c\	.	.	.
.	.	2.d\	.	.	.	2B-\	.	.	.
.	.	.	.	.	.	1A	.	.	.
.	.	4c\	.	.	.	.	.	.	.
.	.	2A/	.	.	.	.	.	.	.
=52	=52	=52	=52	=52	=52	=52	=52	=52	=52
[0.GG	al-	1.B-	.	[0.G	la	1.G	.	1g	-ti
.	.	.	.	.	.	.	.	1r	.
.	.	2G/	.	.	.	2.B-\	.	.	.
.	.	1G	-ti	.	.	.	.	1d	al-
.	.	.	.	.	.	4A/	.	.	.
.	.	.	.	.	.	[2G/	.	.	.
=53	=53	=53	=53	=53	=53	=53	=53	=53	=53
0GG]	.	1r	.	0.G_	.	2G/]	.	2e-i/	-ma
.	.	.	.	.	.	4F/	.	1d	ge-
.	.	.	.	.	.	4E/	.	.	.
.	.	1d	al-	.	.	1D	-ti,	.	.
.	.	.	.	.	.	.	.	2B-/	-ni-
2C/	.	2e-i\	-ma	.	.	1r	.	2c/	-tu-
2BB-/	.	[2d\	ge-	.	.	.	.	2d/	.
=54	=54	=54	=54	=54	=54	=54	=54	=54	=54
2GG/	-ma	2d\]	.	0.G]	.	1d	al-	1B-	-ra,
2G\	ge-	2B-\	-ni-	.	.	.	.	.	.
2C/	-ni-	2c\	-tu-	.	.	2e-i\	-ma	1r	.
2BB-/	-tu-	2d\	.	.	.	1d	ge-	.	.
1GG	-ra,	1B-	-ra,	.	.	.	.	1d	ge-
.	.	.	.	.	.	2B-\	-ni-	.	.
=55	=55	=55	=55	=55	=55	=55	=55	=55	=55
0.r	.	1r	.	0.r	.	2c\	-tu-	2e/	-ni-
.	.	.	.	.	.	2d\	.	2.f/	-tu-
.	.	1d	ge-	.	.	1B-	-ra,	.	.
.	.	.	.	.	.	.	.	4e/	.
.	.	.	.	.	.	.	.	2d/	.
.	.	2e\	-ni-	.	.	1r	.	2c/	.
.	.	[2f\	-tu-	.	.	.	.	2B-/	.
=56	=56	=56	=56	=56	=56	=56	=56	=56	=56
0.r	.	4f\]	.	0.r	.	0.r	.	2.f/	.
.	.	4e\	.	.	.	.	.	.	.
.	.	2d\	.	.	.	.	.	.	.
.	.	.	.	.	.	.	.	4g/	.
.	.	2c\	.	.	.	.	.	2a/	.
.	.	2B-\	.	.	.	.	.	1b-	.
.	.	1c	-ra,	.	.	.	.	.	.
.	.	.	.	.	.	.	.	2a/	.
=57	=57	=57	=57	=57	=57	=57	=57	=57	=57
2r	.	0.r	.	0.r	.	1B-	Des	1b-	-ra,
2D\	Des	.	.	.	.	.	.	.	.
2C/	.	.	.	.	.	2A/	ut	1r	.
2BB-/	ut	.	.	.	.	1G	le-	.	.
1AA	le-	.	.	.	.	.	.	1r	.
.	.	.	.	.	.	2F#i/	.	.	.
=58	=58	=58	=58	=58	=58	=58	=58	=58	=58
1GG	-ta	2r	.	0.r	.	1G	-ta	1b-	Des
.	.	2d\	Des	.	.	.	.	.	.
1r	.	2c\	.	.	.	1r	.	2a/	ul
.	.	2B-\	ut	.	.	.	.	1g	le-
1r	.	1A	le-	.	.	1r	.	.	.
.	.	.	.	.	.	.	.	2f#i/	.
=59	=59	=59	=59	=59	=59	=59	=59	=59	=59
2r	.	1G	-ta	0.r	.	2r	.	1g	-ta
2G\	mu-	.	.	.	.	2G/	mu-	.	.
2F\	-so-	1r	.	.	.	2A/	-so-	1r	.
2G\	-rum	.	.	.	.	2B-\	-rum	.	.
2A\	fac-	1r	.	.	.	2A/	fac-	1r	.
2F\	-tu-	.	.	.	.	[2d\	-tu-	.	.
=60	=60	=60	=60	=60	=60	=60	=60	=60	=60
1E	-ra	2r	.	0.r	.	2d\]	.	2r	.
.	.	2G/	mu-	.	.	2c\	-ra	2g/	mu-
1r	.	2d\	-so-	.	.	1r	.	2f/	-so-
.	.	2e\	-rum	.	.	.	.	2g/	-rum
1r	.	2f\	fac-	.	.	1r	.	2a/	fac-
.	.	[2d\	-tu-	.	.	.	.	2f/	-tu-
=61	=61	=61	=61	=61	=61	=61	=61	=61	=61
1r	.	2d\]	.	0.r	.	1r	.	1e	-ra
.	.	2c#i\	.	.	.	.	.	.	.
2r	.	1d	-ra	.	.	2r	.	1r	.
2D\	Pre-	.	.	.	.	2d\	Pre-	.	.
2E\	-va-	1r	.	.	.	2c\	-va-	1r	.
2G\	-le-	.	.	.	.	2B-\	-le-	.	.
=62	=62	=62	=62	=62	=62	=62	=62	=62	=62
1F	-at	2r	.	0.r	.	1A	-at	2r	.
.	.	2A/	Pre-	.	.	.	.	2a/	Pre-
1r	.	2B-\	-va-	.	.	1r	.	2g/	-va-
.	.	1d	-le-	.	.	.	.	2f/	-le-
1r	.	.	.	.	.	1r	.	1e	-at
.	.	2c#i\	.	.	.	.	.	.	.
=63	=63	=63	=63	=63	=63	=63	=63	=63	=63
2r	.	1d	-at	0.r	.	2d\	y-	0.r	.
2D\	y-	.	.	.	.	2.f\	-mis,	.	.
1F	-mis,	1r	.	.	.	.	.	.	.
.	.	.	.	.	.	4e\	.	.	.
.	.	.	.	.	.	4d\	.	.	.
.	.	.	.	.	.	4c\	.	.	.
2G\	et	1r	.	.	.	2e-i\	et	.	.
[2B-\	su-	.	.	.	.	2d\	su-	.	.
=64	=64	=64	=64	=64	=64	=64	=64	=64	=64
2B-\]	.	1r	.	0.r	.	1c	-a-	1r	.
2A\	-a-	.	.	.	.	.	.	.	.
1B-	-ve,	2d\	y-	.	.	1B-	-ve,	2r	.
.	.	1f	-mis,	.	.	.	.	2d/	y-
1r	.	.	.	.	.	1r	.	1f	mis,
.	.	2d\	.	.	.	.	.	.	.
=65	=65	=65	=65	=65	=65	=65	=65	=65	=65
0.r	.	2e-i\	et	0.r	.	1r	.	2g/	et
.	.	2d\	su-	.	.	.	.	1b-	su-
.	.	1c	-a-	.	.	1r	.	.	.
.	.	.	.	.	.	.	.	2a/	.
.	.	1B-	-ve	.	.	2r	.	4b-\	-a-
.	.	.	.	.	.	.	.	4a/	.
.	.	.	.	.	.	[2d\	Ro-	4g/	.
.	.	.	.	.	.	.	.	4f/	.
=66	=66	=66	=66	=66	=66	=66	=66	=66	=66
1r	.	0.r	.	0.r	.	2d\]	.	1e	.
.	.	.	.	.	.	2c\	-bo-	.	.
2r	.	.	.	.	.	2d\	-ran-	1d	-ve,
1D	Ro-	.	.	.	.	2B-\	.	.	.
.	.	.	.	.	.	[1A	.	1r	.
2C/	-bo-	.	.	.	.	.	.	.	.
=67	=67	=67	=67	=67	=67	=67	=67	=67	=67
2D\	-ran-	1r	.	0.r	.	2A/]	.	2r	.
2BB-/	.	.	.	.	.	2G/	.	1dd	Ro-
1AA	-do	1r	.	.	.	1A	-do	.	.
.	.	.	.	.	.	.	.	2cc\	-bo-
1r	.	2r	.	.	.	1r	.	2dd\	-ran-
.	.	[2d\	Ro-	.	.	.	.	2b-\	.
=68	=68	=68	=68	=68	=68	=68	=68	=68	=68
1r	.	2d\]	.	0.r	.	0.r	.	1a	-do
.	.	2c\	-bo-	.	.	.	.	.	.
2r	.	2d\	-ran-	.	.	.	.	1r	.
1G	so-	2B-\	.	.	.	.	.	.	.
.	.	1A	-do	.	.	.	.	1r	.
2F\	-nos	.	.	.	.	.	.	.	.
=69	=69	=69	=69	=69	=69	=69	=69	=69	=69
2G\	ut	1r	.	0.r	.	0.r	.	2r	.
2B-\	gut-	.	.	.	.	.	.	1g	so-
1A	-tu-	1r	.	.	.	.	.	.	.
.	.	.	.	.	.	.	.	2f/	-nos
1G	-ra,	2r	.	.	.	.	.	2g/	ut
.	.	[2G/	so-	.	.	.	.	2b-\	gut-
=70	=70	=70	=70	=70	=70	=70	=70	=70	=70
0.r	.	2G/]	.	0.r	.	0.r	.	1a	-tu-
.	.	2F/	-nos	.	.	.	.	.	.
.	.	2G/	ut	.	.	.	.	2g/	.
.	.	2B-\	gut-	.	.	.	.	1dd	.
.	.	1A	-tu-	.	.	.	.	.	.
.	.	.	.	.	.	.	.	2cc\	.
=71	=71	=71	=71	=71	=71	=71	=71	=71	=71
0.r	.	2.d\	.	0.r	.	0.r	.	2b-\	.
.	.	.	.	.	.	.	.	1a	.
.	.	4c\	.	.	.	.	.	.	.
.	.	2B-\	.	.	.	.	.	.	.
.	.	4A/	.	.	.	.	.	1g	.
.	.	4G/	.	.	.	.	.	.	.
.	.	1A	.	.	.	.	.	.	.
.	.	.	.	.	.	.	.	2f#i/	.
=72	=72	=72	=72	=72	=72	=72	=72	=72	=72
0GG	gu-	0G	-ra	0.r	.	1.G	Ef-	1g	-ra
.	.	.	.	.	.	.	.	1r	.
.	.	.	.	.	.	1B-	-fla-	.	.
1GG	-tu-	1B-	Ef-	.	.	.	.	1g	Ef-
.	.	.	.	.	.	4A/	-gi-	.	.
.	.	.	.	.	.	4G/	.	.	.
=73	=73	=73	=73	=73	=73	=73	=73	=73	=73
1D	-ra	1A	-fla-	[0.d	La	1F	-tent,	2.a/	-fla-
.	.	.	.	.	.	.	.	4g/	-gi-
1r	.	2F/	-gi-	.	.	1r	.	2a/	-tent,
.	.	1.G	-tent,	.	.	.	.	2.b-\	lau-
1GG	Ef-	.	.	.	.	1G	ef-	.	.
.	.	.	.	.	.	.	.	4g/	.
.	.	.	.	.	.	.	.	2b-\	.
=74	=74	=74	=74	=74	=74	=74	=74	=74	=74
0D	-fla-	1D	.	0.d_	.	2.A/	-fla-	2a/	.
.	.	.	.	.	.	.	.	2.dd\	.
.	.	.	.	.	.	4G/	-gi-	.	.
.	.	1r	.	.	.	2A/	-tent,	.	.
.	.	.	.	.	.	.	.	4cc\	.
.	.	.	.	.	.	2.B-\	lau-	1b-	.
1GG	-gi-	1G	ef-	.	.	.	.	.	.
.	.	.	.	.	.	4G/	.	.	.
.	.	.	.	.	.	2B-\	.	4a/	.
.	.	.	.	.	.	.	.	4g/	.
=75	=75	=75	=75	=75	=75	=75	=75	=75	=75
0D	-tent,	2.A/	-fla-	0.d]	.	1A	-de	0f	-de
.	.	4G/	-gi-	.	.	.	.	.	.
.	.	2A/	-tent,	.	.	1r	.	.	.
.	.	1B-	lau-	.	.	.	.	.	.
1GG	.	.	.	.	.	2.d\	te	1g	te-
.	.	4A/	.	.	.	.	.	.	.
.	.	4G/	.	.	.	4e\	.	.	.
=76	=76	=76	=76	=76	=76	=76	=76	=76	=76
0D	lau-	1F	-de...	[0.A	mi	1f	que	1a	que
.	.	1r	.	.	.	2d\	.	2f/	pu-
.	.	.	.	.	.	1d	pu-	2d/	.
1AA	-de	1r	.	.	.	.	.	1e	.
.	.	.	.	.	.	2c#i\	.	.	.
=77	=77	=77	=77	=77	=77	=77	=77	=77	=77
0D	te-	1f	Ze-	0.A_	.	1d	-ra	2d/	-ra
.	.	.	.	.	.	.	.	2.f/	Ze-
.	.	2d\	-lo-	.	.	1r	.	.	.
.	.	.	.	.	.	.	.	4e/	.
.	.	2f\	-ti-	.	.	.	.	1d	-lo-
1AA	-que	1e	-ca	.	.	1r	.	.	.
.	.	.	.	.	.	.	.	2c#i/	-ti-
=78	=78	=78	=78	=78	=78	=78	=78	=78	=78
0D	pu-	1d	ar-	0.A]	.	1f	Ze-	1d	-ca
.	.	1D	-te	.	.	2d\	-lo-	2.a/	ar-
.	.	.	.	.	.	2f\	-ti-	.	.
.	.	.	.	.	.	.	.	4b-\	.
1AA	-ra	2r	.	.	.	1e	-ca	1cc	-te
.	.	2A/	cla-	.	.	.	.	.	.
=79	=79	=79	=79	=79	=79	=79	=79	=79	=79
2r	.	2.B-\	.	[0.dl	la	1d	.	1dd	cla-
1D	Ze-	.	.	.	.	.	.	.	.
.	.	4A/	.	.	.	.	.	.	.
.	.	2F/	-ment	.	.	2r	.	2a/	-ment
2GG/	-lo-	1G	a-	.	.	2G/	ar-	1b-	a-
2.BB-/	-ti-	.	.	.	.	2.d\	-te	.	.
.	.	4F/	.	.	.	.	.	4a/	.
4C/	-ca	4E/	.	.	.	4e\	.	4g/	.
=80	=80	=80	=80	=80	=80	=80	=80	=80	=80
2D\	ar-	0.D	.	0.d_	.	2f\	cla-	2f/	.
2GG/	-te	.	.	.	.	1d	.	2.b-\	.
2.BB-/	cla-	.	.	.	.	.	.	.	.
.	.	.	.	.	.	.	.	4a/	.
.	.	.	.	.	.	4c\	-ment	1g	.
4C/	-ment	.	.	.	.	4B-\	.	.	.
1D	a-	.	.	.	.	1A	a-	.	.
.	.	.	.	.	.	.	.	2f#i/	.
=81	=81	=81	=81	=81	=81	=81	=81	=81	=81
0.GGl	-ve.	0.Gl	-ve.	0.d]	.	0.Gl	-ve.	0.gl	-ve.
!!LO:LB:i:g=z
=82||	=82||	=82||	=82||	=82||	=82||	=82||	=82||	=82||	=82||
*>B	*	*>B	*	*>B	*	*>B	*	*>B	*
!!!OMD: Secunda pars: Ave virginum decus
*M2/1	*	*M2/1	*	*M2/1	*	*M2/1	*	*M2/1	*
*met(C|)	*	*met(C|)	*	*met(C|)	*	*met(C|)	*	*met(C|)	*
0r	.	0r	.	0r	.	0f	A-	0a	A-
=83	=83	=83	=83	=83	=83	=83	=83	=83	=83
0r	.	0r	.	0r	.	1f	-ve	1a	-ve
.	.	.	.	.	.	1f	vir-	1a	vir-
=84	=84	=84	=84	=84	=84	=84	=84	=84	=84
0r	.	0r	.	0r	.	1.g	-gi-	1.b-	-gi-
.	.	.	.	.	.	4f\	.	4a/	.
.	.	.	.	.	.	4e\	.	4g/	.
=85	=85	=85	=85	=85	=85	=85	=85	=85	=85
0D	A-	0A	A-	0d	La	[0f	-num,	0a	-num,
=86	=86	=86	=86	=86	=86	=86	=86	=86	=86
1F	-ve	1A	-ve	0A	mi	0f]	.	0r	.
1F	vir-	1A	vir-	.	.	.	.	.	.
=87	=87	=87	=87	=87	=87	=87	=87	=87	=87
0G	-gi-	1.B-	-gi-	0d	la	0r	.	0r	.
.	.	4A/	.	.	.	.	.	.	.
.	.	4G/	.	.	.	.	.	.	.
=88	=88	=88	=88	=88	=88	=88	=88	=88	=88
0D	-num,	0A	-num,	0r	.	1r	.	1r	.
.	.	.	.	.	.	[1f	De-	[1a	De-
=89	=89	=89	=89	=89	=89	=89	=89	=89	=89
0r	.	0r	.	0r	.	1f]	.	1a]	.
.	.	.	.	.	.	1e	-cus	1g	-cus
=90	=90	=90	=90	=90	=90	=90	=90	=90	=90
0r	.	0r	.	0r	.	2d\	ho-	2f/	ho-
.	.	.	.	.	.	2B-\	.	2d/	.
.	.	.	.	.	.	1c	-mi-	1e	-mi-
=91	=91	=91	=91	=91	=91	=91	=91	=91	=91
0GG	De-	0B-	De-	0G	La	[0d	-num	2d/	-num
.	.	.	.	.	.	.	.	1b-	.
.	.	.	.	.	.	.	.	4a/	.
.	.	.	.	.	.	.	.	4g/	.
=92	=92	=92	=92	=92	=92	=92	=92	=92	=92
1D	-cus	1A	-cus	0D	mi	0d_	.	0f	.
1D	ho-	1A	ho-	.	.	.	.	.	.
=93	=93	=93	=93	=93	=93	=93	=93	=93	=93
0GG	-mi-	1.B-	-mi-	0G	la	0d]	.	0r	.
.	.	4A/	.	.	.	.	.	.	.
.	.	4G/	.	.	.	.	.	.	.
=94	=94	=94	=94	=94	=94	=94	=94	=94	=94
0D	-num...	0A	-num	0r	.	1r	.	1.f	Ce-
.	.	.	.	.	.	1d	Ce-	.	.
.	.	.	.	.	.	.	.	2g/	.
=95	=95	=95	=95	=95	=95	=95	=95	=95	=95
0r	.	0r	.	0r	.	1c	-li	2a/	-li
.	.	.	.	.	.	.	.	4b-\	.
.	.	.	.	.	.	.	.	4cc\	.
.	.	.	.	.	.	1d	que	2b-\	que
.	.	.	.	.	.	.	.	[2a/	por-
=96	=96	=96	=96	=96	=96	=96	=96	=96	=96
0r	.	0r	.	0r	.	2G/	por-	2a/]	.
.	.	.	.	.	.	2B-\	.	1g	.
.	.	.	.	.	.	1A	.	.	.
.	.	.	.	.	.	.	.	2f#i/	.
=97	=97	=97	=97	=97	=97	=97	=97	=97	=97
1G	A-	1r	.	0d	La	0G	-ta.	0g	-ta.
1G	-ve	1d	A-	.	.	.	.	.	.
=98	=98	=98	=98	=98	=98	=98	=98	=98	=98
2A\	li-	1c	-ve	0A	mi	0r	.	0r	.
1F#i	-li-	.	.	.	.	.	.	.	.
.	.	1A	li-	.	.	.	.	.	.
4E\	.	.	.	.	.	.	.	.	.
4F#i\	.	.	.	.	.	.	.	.	.
=99	=99	=99	=99	=99	=99	=99	=99	=99	=99
0G	-um,	0B-	-li-	0d	la	1G	Flos	1r	.
.	.	.	.	.	.	1G	hu-	1dd	Flos
=100	=100	=100	=100	=100	=100	=100	=100	=100	=100
0r	.	0A	-um,	0r	.	2A/	-mi-	1cc	hu-
.	.	.	.	.	.	1F#i	-li-	.	.
.	.	.	.	.	.	.	.	1a	-mi-
.	.	.	.	.	.	4E/	.	.	.
.	.	.	.	.	.	4F#i/	.	.	.
=101	=101	=101	=101	=101	=101	=101	=101	=101	=101
1G	Flos	1r	.	0r	.	0G	-um,	0b-	-li-
1G	hu-	1d	Vir-	.	.	.	.	.	.
=102	=102	=102	=102	=102	=102	=102	=102	=102	=102
2A\	-mi-	1c	-go	0r	.	0r	.	0a	-um,
1F#i	-li-	.	.	.	.	.	.	.	.
.	.	1A	de-	.	.	.	.	.	.
4E\	.	.	.	.	.	.	.	.	.
4F#i\	.	.	.	.	.	.	.	.	.
=103	=103	=103	=103	=103	=103	=103	=103	=103	=103
0G	-um...	0B-	-co-	0G	La	[0d	-um...	1g	Vir-
.	.	.	.	.	.	.	.	1g	-go
=104	=104	=104	=104	=104	=104	=104	=104	=104	=104
0r	.	0A	.	0D	mi	0d_	.	2a/	de-
.	.	.	.	.	.	.	.	1f#i	-co-
.	.	.	.	.	.	.	.	4e/	.
.	.	.	.	.	.	.	.	4f#i/	.
=105	=105	=105	=105	=105	=105	=105	=105	=105	=105
0r	.	0G	-ra.	0G	la	0d]	.	0g	-ra.
=106	=106	=106	=106	=106	=106	=106	=106	=106	=106
1B-	Va-	0r	.	0r	.	0r	.	1dd	Va-
1F	-le	.	.	.	.	.	.	1cc	-le
=107	=107	=107	=107	=107	=107	=107	=107	=107	=107
1G	er-	1G	Va-	1r	.	1g	Va-	1b-	er-
1D	-go,	2d\	-le	1d	La	1f	-le	1a	-go,
.	.	[2d\	er-	.	.	.	.	.	.
=108	=108	=108	=108	=108	=108	=108	=108	=108	=108
0r	.	2d\]	.	1A	mi	1e	er-	0r	.
.	.	2c#i\	.	.	.	.	.	.	.
.	.	[1d	-go,	1d	la	1d	-go,	.	.
=109	=109	=109	=109	=109	=109	=109	=109	=109	=109
1D	to	1d]	.	0r	.	0r	.	1f	to
1E	-ta	1r	.	.	.	.	.	1g	-ta
=110	=110	=110	=110	=110	=110	=110	=110	=110	=110
1F	pul-	1r	.	1r	.	1c	to	1a	pul-
1G	-cra	2r	.	1G	La	1B-	-ta	2b-\	.
.	.	[2d\	to-	.	.	.	.	[2g/	.
=111	=111	=111	=111	=111	=111	=111	=111	=111	=111
1r	.	2d\]	.	1D	mi	1A	pul-	2g/]	.
.	.	2c\	.	.	.	.	.	2f/	.
1GG	ut	2B-\	-ta	1G	la	1G	-cra	2g/	.
.	.	4A/	.	.	.	.	.	[2dd\	.
.	.	4G/	.	.	.	.	.	.	.
=112	=112	=112	=112	=112	=112	=112	=112	=112	=112
1AA	lu-	1F#i	-pul-	0r	.	1r	.	2dd\]	.
.	.	.	.	.	.	.	.	2cc\	.
1GG	na,	1G	-cra	.	.	1G	ut	2b-\	.
.	.	.	.	.	.	.	.	4a/	.
.	.	.	.	.	.	.	.	4g/	.
=113	=113	=113	=113	=113	=113	=113	=113	=113	=113
0r	.	1r	.	1r	.	1A	lu-	1f#i	.
.	.	1B-	ut	1d	La	1G	na,	2g/	-cra
.	.	.	.	.	.	.	.	2d/	ut
=114	=114	=114	=114	=114	=114	=114	=114	=114	=114
0r	.	1c	lu-	1A	mi	1r	.	1e	lu-
.	.	1d	na,	1d	la	1B-	E-	2d/	na,
.	.	.	.	.	.	.	.	2f/	E-
=115	=115	=115	=115	=115	=115	=115	=115	=115	=115
1r	.	1r	.	0r	.	1c	-lec-	1e	-lec-
1G	E-	1B-	E-	.	.	1d	-ta,	1d	-ta,
=116	=116	=116	=116	=116	=116	=116	=116	=116	=116
1A	-lec-	1c	-lec-	1r	.	1r	.	2r	.
.	.	.	.	.	.	.	.	2a/	e-
1G	-ta	[1d	-ta,	1G	La	2r	.	2b-\	-lec-
.	.	.	.	.	.	2B-\	e-	4a/	.
.	.	.	.	.	.	.	.	4g/	.
=117	=117	=117	=117	=117	=117	=117	=117	=117	=117
0r	.	1d]	.	1D	mi	1A	-lec-	1f#i	.
.	.	1r	.	1G	la	[1G	-ta	1g	-ta
=118	=118	=118	=118	=118	=118	=118	=118	=118	=118
0r	.	0r	.	0r	.	1G]	.	1g	ut
.	.	.	.	.	.	1G	ut	[1dd	sol,
=119	=119	=119	=119	=119	=119	=119	=119	=119	=119
1r	.	1G	ut	1r	.	0d	sol,	1dd]	.
1GG	ut	[1d	sol,	1d	La	.	.	1r	.
=120	=120	=120	=120	=120	=120	=120	=120	=120	=120
0D	sol,	1d]	.	1A	mi	1r	.	1r	.
.	.	1r	.	1d	la	1f	cla-	1a	cla-
=121	=121	=121	=121	=121	=121	=121	=121	=121	=121
1GG	cla-	0r	.	0r	.	1g	-ris-	1b-	-ris-
1D	-ris-	.	.	.	.	2d\	-si-	2a/	-si-
.	.	.	.	.	.	[2f\	-ma	[2dd\	-ma
=122	=122	=122	=122	=122	=122	=122	=122	=122	=122
1BB-	-si-	0r	.	1r	.	4f\]	.	4dd\]	.
.	.	.	.	.	.	4e\	.	4cc\	.
.	.	.	.	.	.	1d	.	1b-	.
1GG	-ma	.	.	1G	La	.	.	.	.
.	.	.	.	.	.	4c\	.	4a/	.
.	.	.	.	.	.	4B-\	.	4g/	.
=123	=123	=123	=123	=123	=123	=123	=123	=123	=123
1D	gau-	0r	.	1D	mi	1A	gau-	2.f#i/	gau-
.	.	.	.	.	.	.	.	4e/	.
1GG	-de.	.	.	1G	la	1G	-de.	1g	-de.
=124	=124	=124	=124	=124	=124	=124	=124	=124	=124
*M3/1	*	*M3/1	*	*M3/1	*	*M3/1	*	*M3/1	*
*met(3)	*	*met(3)	*	*met(3)	*	*met(3)	*	*met(3)	*
1G	Sal-	1G	Sal-	0.r	.	0.r	.	1g	Sal-
1G	-ve	1G	-ve	.	.	.	.	1g	-ve
1E	tu	1G	tu	.	.	.	.	1g	tu
=125	=125	=125	=125	=125	=125	=125	=125	=125	=125
0D	so-	0A	so-	1d	La	0.r	.	1f	so-
.	.	.	.	1A	mi	.	.	1.a	.
1D	-la,	1F	-la,	1d	la	.	.	.	.
.	.	.	.	.	.	.	.	2g/	.
=126	=126	=126	=126	=126	=126	=126	=126	=126	=126
1E	con-	1G	con-	0.r	.	0.r	.	1g	-la,
0D	-so-	0A	-so-	.	.	.	.	1.f#i	con-
.	.	.	.	.	.	.	.	2e/	.
=127	=127	=127	=127	=127	=127	=127	=127	=127	=127
0GG	-la	0G	-la	1G	La	[0.B-	Sal-	1g	-so-
.	.	.	.	1D	mi	.	.	1.dd	.
1r	.	1r	.	1G	la	.	.	.	.
.	.	.	.	.	.	.	.	2cc\	.
=128	=128	=128	=128	=128	=128	=128	=128	=128	=128
0GG	con-	0G	con-	0.r	.	0.B-]	.	1.b-	.
.	.	.	.	.	.	.	.	2a/	.
1GG	-so-	1G	-so-	.	.	.	.	1g	.
=129	=129	=129	=129	=129	=129	=129	=129	=129	=129
0D	-la	1A	-la	1d	La	0A	-ve...	1f	.
.	.	1F	.	1A	mi	.	.	1.a	.
1BB-	a-	1G	a-	1d	la	1r	.	.	.
.	.	.	.	.	.	.	.	2g/	.
=130	=130	=130	=130	=130	=130	=130	=130	=130	=130
1GG	.	1B-	.	0.r	.	1.d	con-	1g	-la
0D	-mi-	0A	-mi-	.	.	.	.	1.f#i	a-
.	.	.	.	.	.	2c\	-so-	.	.
.	.	.	.	.	.	1A	-la	.	.
.	.	.	.	.	.	.	.	2e/	.
=131	=131	=131	=131	=131	=131	=131	=131	=131	=131
0.GG	-ca	0G	-ca	1G	La	1B-	a-	1g	-mi-
.	.	.	.	1D	mi	1.G	-mi-	1.b-	.
.	.	1d	La	1G	la	.	.	.	.
.	.	.	.	.	.	2F/	.	2a/	.
=132	=132	=132	=132	=132	=132	=132	=132	=132	=132
0D	La	1A	mi	0.r	.	0A	.	[0.f#	-ca
.	.	1d	la,	.	.	.	.	.	.
1AA	mi	1r	.	.	.	1A	-ca	.	.
=133	=133	=133	=133	=133	=133	=133	=133	=133	=133
[0.D	la	0.r	.	1d	La	1r	.	0.f#_	.
.	.	.	.	1A	mi	1d	La	.	.
.	.	.	.	1d	la	1A	mi	.	.
=134	=134	=134	=134	=134	=134	=134	=134	=134	=134
0.D]	.	1r	.	0.r	.	0.d	la...	0.f#]	.
.	.	1d	La	.	.	.	.	.	.
.	.	1A	mi	.	.	.	.	.	.
=135	=135	=135	=135	=135	=135	=135	=135	=135	=135
0.r	.	0.d	la	1G	La	0.r	.	1b-	Ca-
.	.	.	.	1D	mi	.	.	1a	-nen-
.	.	.	.	1G	la	.	.	1g	-tes
=136	=136	=136	=136	=136	=136	=136	=136	=136	=136
0BB-	ca-	1r	.	0.r	.	0.f	in	0dd	in
.	.	1B-	ca-	.	.	.	.	.	.
1F	-nen-	1A	-nen-	.	.	.	.	1cc	tu-
=137	=137	=137	=137	=137	=137	=137	=137	=137	=137
1G	-tes	1G	-tes	1d	La	0d	tu-	1b-	-a
1F	in	1A	in	1A	mi	.	.	1.a	lau-
1D	tu-	1F	tu-	1d	la	1d	-a	.	.
.	.	.	.	.	.	.	.	2g/	.
=138	=138	=138	=138	=138	=138	=138	=138	=138	=138
1E	-a	1G	-a	0.r	.	1c	lau-	0g	.
0D	lau-	0A	lau-	.	.	0d	.	.	.
.	.	.	.	.	.	.	.	1f#i	.
=139	=139	=139	=139	=139	=139	=139	=139	=139	=139
0.GG	-de.	0.G	-de.	1G	La	0.B-	-de.	0.g	-de.
.	.	.	.	1D	mi	.	.	.	.
.	.	.	.	1G	la	.	.	.	.
=140	=140	=140	=140	=140	=140	=140	=140	=140	=140
*M2/1	*	*M2/1	*	*M2/1	*	*M2/1	*	*M2/1	*
*met(C|2)	*	*met(C|2)	*	*met(C|2)	*	*met(C|2)	*	*met(C|2)	*
0G	A-	0r	.	0r	.	0G	A-	0r	.
=141.	=141.	=141.	=141.	=141.	=141.	=141.	=141.	=141.	=141.
1F	-ve	0r	.	0r	.	1A	-ve	0r	.
1F	Ma-	.	.	.	.	1A	Ma-	.	.
=142	=142	=142	=142	=142	=142	=142	=142	=142	=142
0G	-ri-	0d	A-	0r	.	0B-	-ri-	0g	A-
=143.	=143.	=143.	=143.	=143.	=143.	=143.	=143.	=143.	=143.
0D	-a,	1f	-ve	0d	La	0A	-a,	1a	-ve
.	.	1d	Ma-	.	.	.	.	[1dd	Ma-
=144	=144	=144	=144	=144	=144	=144	=144	=144	=144
0r	.	0e	-ri-	0A	mi	0r	.	1dd]	.
.	.	.	.	.	.	.	.	1cc	-ri-
=145.	=145.	=145.	=145.	=145.	=145.	=145.	=145.	=145.	=145.
0D	ma-	0d	-a,	0d	la	1r	.	1.dd	-a,
.	.	.	.	.	.	[1d	ma-	.	.
.	.	.	.	.	.	.	.	4cc\	.
.	.	.	.	.	.	.	.	4b-\	.
=146	=146	=146	=146	=146	=146	=146	=146	=146	=146
1F	-ter	0r	.	0r	.	1d]	.	1a	.
1F	vir-	.	.	.	.	1c	-ter	1a	ma-
=147.	=147.	=147.	=147.	=147.	=147.	=147.	=147.	=147.	=147.
0G	-tu-	1r	.	0r	.	0B-	vir-	1.b-	-ter
.	.	[1d	ma-	.	.	.	.	.	.
.	.	.	.	.	.	.	.	4a/	.
.	.	.	.	.	.	.	.	4g/	.
=148	=148	=148	=148	=148	=148	=148	=148	=148	=148
0D	-tum,	1d]	.	0r	.	0A	.	1f	.
.	.	1c	-ter	.	.	.	.	1a	vir-
=149.	=149.	=149.	=149.	=149.	=149.	=149.	=149.	=149.	=149.
1r	.	0B-	vir-	0G	La	1G	.	1b-	-tu-
1GG	vir-	.	.	.	.	[1d	-tu-	[1g	.
=150	=150	=150	=150	=150	=150	=150	=150	=150	=150
0D	-tu-	0A	-tu-	0D	mi	0d]	.	1g]	.
.	.	.	.	.	.	.	.	1f#i	.
=151.	=151.	=151.	=151.	=151.	=151.	=151.	=151.	=151.	=151.
0GG	-tum,	0G	-tum,	0G	la	1B-	-tum,	0g	-tum,
.	.	.	.	.	.	1B-	Ve-	.	.
=152	=152	=152	=152	=152	=152	=152	=152	=152	=152
0G	Ve-	0r	.	0r	.	1G	.	0r	.
.	.	.	.	.	.	1B-	-ni-	.	.
=153.	=153.	=153.	=153.	=153.	=153.	=153.	=153.	=153.	=153.
1F	-ni-	0r	.	0r	.	1A	-e	0r	.
1D	-e	.	.	.	.	[1d	ve-	.	.
=154	=154	=154	=154	=154	=154	=154	=154	=154	=154
0E	ve-	1r	.	0r	.	1d]	.	1g	Ve-
.	.	1g	Ve-	.	.	1c#i	.	1g	-ni-
=155.	=155.	=155.	=155.	=155.	=155.	=155.	=155.	=155.	=155.
0D	-na,	1f	-ni-	0d	La	0d	-na.	1a	-e
.	.	1d	-e	.	.	.	.	[1dd	ve-
=156	=156	=156	=156	=156	=156	=156	=156	=156	=156
0r	.	0e	ve-	0A	mi	0r	.	1dd]	.
.	.	.	.	.	.	.	.	1cc#i	.
=157.	=157.	=157.	=157.	=157.	=157.	=157.	=157.	=157.	=157.
0D	A-	0d	-na,	0d	la	1r	.	0dd	-na,
.	.	.	.	.	.	[1d	A-	.	.
=158	=158	=158	=158	=158	=158	=158	=158	=158	=158
1F	-ve	0r	.	0r	.	1d]	.	0a	a-
1F	Ma-	.	.	.	.	1c	-ve	.	.
=159.	=159.	=159.	=159.	=159.	=159.	=159.	=159.	=159.	=159.
0G	-ri-	1r	.	0r	.	0B-	Ma-	1.b-	-ve
.	.	[1d	a-	.	.	.	.	.	.
.	.	.	.	.	.	.	.	4a/	.
.	.	.	.	.	.	.	.	4g/	.
=160	=160	=160	=160	=160	=160	=160	=160	=160	=160
0D	-a,	1d]	.	0r	.	0A	.	1f	.
.	.	1c	-ve	.	.	.	.	1a	Ma-
=161.	=161.	=161.	=161.	=161.	=161.	=161.	=161.	=161.	=161.
1r	.	0B-	Ma-	0G	La	1G	.	1b-	.
1GG	Ma-	.	.	.	.	[1d	-ri-	[1g	-ri-
=162	=162	=162	=162	=162	=162	=162	=162	=162	=162
0D	-ri-	0A	-ri-	0D	mi	0d]	.	1g]	.
.	.	.	.	.	.	.	.	1f#i	.
=163.	=163.	=163.	=163.	=163.	=163.	=163.	=163.	=163.	=163.
0GG	-a,	0G	-a,	0G	la	0B-	-a,	0g	-a,
=164	=164	=164	=164	=164	=164	=164	=164	=164	=164
0G	Gra-	0r	.	0r	.	1G	Gra-	0r	.
.	.	.	.	.	.	1B-	-ti-	.	.
=165.	=165.	=165.	=165.	=165.	=165.	=165.	=165.	=165.	=165.
1F	-ti-	0r	.	0r	.	1A	-a	0r	.
1D	-a	.	.	.	.	[1d	ple-	.	.
=166	=166	=166	=166	=166	=166	=166	=166	=166	=166
0E	ple-	1r	.	0r	.	1d]	.	1g	Gra-
.	.	1g	Gra-	.	.	1c#i	.	1g	-ti-
=167.	=167.	=167.	=167.	=167.	=167.	=167.	=167.	=167.	=167.
0D	-na,	1f	-ti-	0d	La	0d	-na,	1a	-a
.	.	1d	-a	.	.	.	.	[1dd	ple-
=168	=168	=168	=168	=168	=168	=168	=168	=168	=168
0r	.	0e	ple-	0A	mi	0r	.	1dd]	.
.	.	.	.	.	.	.	.	1cc	.
=169.	=169.	=169.	=169.	=169.	=169.	=169.	=169.	=169.	=169.
0D	do-	0d	-na,	0d	la	1r	.	1.dd	-na,
.	.	.	.	.	.	[1d	do-	.	.
.	.	.	.	.	.	.	.	4cc\	.
.	.	.	.	.	.	.	.	4b-\	.
=170	=170	=170	=170	=170	=170	=170	=170	=170	=170
1F	-mi-	0r	.	0r	.	1d]	.	1a	.
1F	-nus	.	.	.	.	1c	.	1a	do-
=171.	=171.	=171.	=171.	=171.	=171.	=171.	=171.	=171.	=171.
0G	te-	1r	.	0r	.	0B-	.	1.b-	.
.	.	[1d	do-	.	.	.	.	.	.
.	.	.	.	.	.	.	.	4a/	.
.	.	.	.	.	.	.	.	4g/	.
=172	=172	=172	=172	=172	=172	=172	=172	=172	=172
0D	-cum,	1d]	.	0r	.	0A	-mi-	1f	-mi-
.	.	1c	-mi-	.	.	.	.	1a	-nus
=173.	=173.	=173.	=173.	=173.	=173.	=173.	=173.	=173.	=173.
1r	.	0B-	-nus	0G	La	1G	-nus	1b-	te-
1GG	te-	.	.	.	.	[1d	te-	[1g	.
=174	=174	=174	=174	=174	=174	=174	=174	=174	=174
0D	.	0A	te-	0D	mi	0d]	.	1g]	.
.	.	.	.	.	.	.	.	1f#i	.
=175.	=175.	=175.	=175.	=175.	=175.	=175.	=175.	=175.	=175.
0GG	-cum.	0G	-cum.	0G	la	0B-	-cum.	0g	-cum.
=176	=176	=176	=176	=176	=176	=176	=176	=176	=176
0G	A-	0r	.	0r	.	0G	A-	0r	.
=177.	=177.	=177.	=177.	=177.	=177.	=177.	=177.	=177.	=177.
1F	-ve	0r	.	0r	.	1A	-ve	0r	.
1F	Ma-	.	.	.	.	1A	Ma-	.	.
=178	=178	=178	=178	=178	=178	=178	=178	=178	=178
0G	-ri-	0d	A-	0r	.	0B-	-ri-	0g	A-
=179.	=179.	=179.	=179.	=179.	=179.	=179.	=179.	=179.	=179.
0D	-a,	1f	-ve	0d	La	0A	-a,	1a	-ve
.	.	1d	Ma-	.	.	.	.	[1dd	Ma-
=180	=180	=180	=180	=180	=180	=180	=180	=180	=180
0r	.	0e	-ri-	0A	mi	0r	.	1dd]	.
.	.	.	.	.	.	.	.	1cc	-ri-
=181.	=181.	=181.	=181.	=181.	=181.	=181.	=181.	=181.	=181.
0D	ma-	0d	-a,	0d	la	1r	.	1.dd	-a,
.	.	.	.	.	.	[1d	ma-	.	.
.	.	.	.	.	.	.	.	4cc\	.
.	.	.	.	.	.	.	.	4b-\	.
=182	=182	=182	=182	=182	=182	=182	=182	=182	=182
1F	-ter	0r	.	0r	.	1d]	.	1a	.
1F	vir-	.	.	.	.	1c	-ter	1a	ma-
=183.	=183.	=183.	=183.	=183.	=183.	=183.	=183.	=183.	=183.
0G	-tu-	1r	.	0r	.	0B-	vir-	1.b-	-ter
.	.	[1d	ma-	.	.	.	.	.	.
.	.	.	.	.	.	.	.	4a/	.
.	.	.	.	.	.	.	.	4g/	.
=184	=184	=184	=184	=184	=184	=184	=184	=184	=184
0D	-tum,	1d]	.	0r	.	0A	-tu-	1f	.
.	.	1c	-ter	.	.	.	.	1a	vir-
=185.	=185.	=185.	=185.	=185.	=185.	=185.	=185.	=185.	=185.
1r	.	0B-	vir-	0G	La	0G	-tum,	1b-	-tu-
1GG	vir-	.	.	.	.	.	.	[1g	.
=186	=186	=186	=186	=186	=186	=186	=186	=186	=186
0D	-tu-	0A	-tu-	0D	mi	0r	.	1g]	.
.	.	.	.	.	.	.	.	1f#i	.
=187.	=187.	=187.	=187.	=187.	=187.	=187.	=187.	=187.	=187.
0GG	-tum,	0G	-tum,	0G	la	0r	.	1g	-tum,
.	.	.	.	.	.	.	.	[1dd	A-
=188	=188	=188	=188	=188	=188	=188	=188	=188	=188
[0G	A-	[0B-	A-	0r	.	[0d;l	A-	1dd]	.
.	.	.	.	.	.	.	.	1cc	.
=189.	=189.	=189.	=189.	=189.	=189.	=189.	=189.	=189.	=189.
0G]	.	0B-]	.	0r	.	0d_	.	1.b-	.
.	.	.	.	.	.	.	.	4a/	.
.	.	.	.	.	.	.	.	4g/	.
=190	=190	=190	=190	=190	=190	=190	=190	=190	=190
[0Dl;	.	[0A;l	.	0r	.	0d_	.	[0f#i;l	.
=191.	=191.	=191.	=191.	=191.	=191.	=191.	=191.	=191.	=191.
0D_	.	0A_	.	0d	A-	0d_	.	0f#y_	.
=192	=192	=192	=192	=192	=192	=192	=192	=192	=192
0D_	.	0A_	.	0A	.	0d_	.	0f#y_	.
=193.	=193.	=193.	=193.	=193.	=193.	=193.	=193.	=193.	=193.
0D]	.	0A]	.	[0dl	-men.	0d]	.	0f#y]	.
=194	=194	=194	=194	=194	=194	=194	=194	=194	=194
!	!	!	!	!	!	!LO:TX:X=-50:Z=6:t=MS&colon; no new note	!	!	!
0GGl	-men.	0Gl	-men.	0d]	.	0dl	-men.	0gl	-men.
==	==	==	==	==	==	==	==	==	==
*-	*-	*-	*-	*-	*-	*-	*-	*-	*-
!!!RDF**kern: l=long note in original notation
!!!RDF**kern: i=editorial accidental
!!!verovio: evenNoteSpacing
!!!ENC: Jesse Rodin; Victoria Chang 2011/05/10
!!!END: 2011/08/05/
!!!SMS: Cappella Sistina 15
!!!EED: Jesse Rodin
!!!EEV: 2021/06/05
!!attribution-level@Jos: 1 (secure, core group [checkmark])
!!!ONB: Translated from MusicXML and edited on 2011/08/05/ by Craig Sapp
!!muse2ps: C^@{COM}\n@{SCT} (ed. based on CS 15)^i2I150v75,75,75,75,105c130z18l2780t100
